X:409
T: Rschen (127c), S. 292
N: T0297
O: Luxemburg
S: Singendes Volk, Esch-Alzette 1937 posth.]
N: Blascheid, hhh Johann Hitting, 1903
R: Liebeslieder]
M: 3/4
L: 1/8
K: G
GA | B3GAG | FEz2
ee | d3BGA | B2z2
BB | B3GAG | FEz2
AB | d3cEF | G2z
DGA | B3GAG | FEz
EAB | d3cEF | G2z2

@@@ Tune index: 8463
